X: 18694
T: I'm Sleeping And Don't Waken Me
R: waltz
M: 3/4
K: Fmajor
C>C|D2 F2 F2|F4 A>A|(GA) (cA) (GF)|{E2}D4 C2|
D2 F2 F2|A2 c2 d2|G2 G>F|F4 d>d|
_e4 f2|_e d3 (fd)|(cd) (cA) (GF)|(F2 D2) z C|
D F3 F2|A2 c2 z d|G2 G3 A|F6|
B2 (cB)(AG)|A2 (BA)(GF)|(GA)(cG) (AF)|{E2}D4 C>C|
D2 F2 F2|A2 c3 d|G G3 z A|F4 z2
B2 (cB)(AG)|A2 (BA)(GF)|(GA)(cG) (AF)|{E2}D4 C>C|
D2 F2 F2|A4 c>d|G G3 z A|F4 z2||

